svg/footer-bubble.svg

<svg width="359" height="111" viewBox="0 0 359 111" fill="none" xmlns="http://www.w3.org/2000/svg">
<path d="M10.1126 35.7271C10.1126 23.4274 13.9071 17.4348 23.7253 10.6262C32.8125 4.32453 40.4135 2.97044 50.6132 2.97044C88.5024 2.97044 126.334 4.09998 164.24 4.09998C212.095 4.09998 271.855 -2.87491 319.269 4.10006C329.83 5.65372 341.287 9.28219 347.844 19.0351C353.215 27.0241 357.118 45.0283 358 54.8666C358 80.344 291.709 86.6192 267.908 86.6192C239.292 86.6192 208.221 87.5152 179.709 86.6192C173.185 110.744 144.137 109.06 144.137 109.06C172.343 75.8018 92.7759 80.344 71.9322 80.344C56.9917 80.344 44.1022 79.7732 31.7323 74.5388C18.2619 68.8388 1 50.6238 1 32.3385" stroke="#00CF74" stroke-width="1.90638" stroke-linecap="round"/>
</svg>

<svg xmlns="http://www.w3.org/2000/svg" width="359" height="111" fill="none"><path stroke="#00CF74" stroke-linecap="round" stroke-width="1.906" d="M10.113 35.727c0-12.3 3.794-18.292 13.612-25.1C32.812 4.324 40.413 2.97 50.613 2.97c37.89 0 75.721 1.13 113.627 1.13 47.855 0 107.615-6.975 155.029 0 10.561 1.554 22.018 5.182 28.575 14.935 5.371 7.99 9.274 25.993 10.156 35.832 0 25.477-66.291 31.752-90.092 31.752-28.616 0-59.687.896-88.199 0-6.524 24.125-35.572 22.441-35.572 22.441 28.206-33.258-51.361-28.716-72.205-28.716-14.94 0-27.83-.57-40.2-5.805C18.262 68.839 1 50.624 1 32.339"/></svg>
